www/assets/icons/adf_scanner.svg

<svg xmlns="http://www.w3.org/2000/svg" width="24" height="24" viewBox="0 0 24 24" fill='currentColor'><path d="M19 12h-1V4H6v8H5c-1.66 0-3 1.34-3 3v5h20v-5c0-1.66-1.34-3-3-3m-3 0H8V6h8zm2 5c-.55 0-1-.45-1-1s.45-1 1-1 1 .45 1 1-.45 1-1 1"/></svg>

<svg width="24" height="24" viewBox="0 0 24 24" xmlns="http://www.w3.org/2000/svg" fill='currentColor'><path d="M19 12H18V4H6V12H5C3.34 12 2 13.34 2 15V20H22V15C22 13.34 20.66 12 19 12ZM16 12H8V6H16V12ZM18 17C17.45 17 17 16.55 17 16C17 15.45 17.45 15 18 15C18.55 15 19 15.45 19 16C19 16.55 18.55 17 18 17Z"/></svg>
